src/assets/images/atoa_logo_primary.svg

<svg width="32" height="14" viewBox="0 0 32 14" fill="none" xmlns="http://www.w3.org/2000/svg">
<g clip-path="url(#clip0_4439_18641)">
<mask id="mask0_4439_18641" style="mask-type:luminance" maskUnits="userSpaceOnUse" x="0" y="0" width="32" height="14">
<path d="M31.1891 0.597656H0.789062V13.3977H31.1891V0.597656Z" fill="white"/>
</mask>
<g mask="url(#mask0_4439_18641)">
<mask id="mask1_4439_18641" style="mask-type:luminance" maskUnits="userSpaceOnUse" x="0" y="0" width="32" height="14">
<path d="M31.1978 0.59375H0.789062V13.3938H31.1978V0.59375Z" fill="white"/>
</mask>
<g mask="url(#mask1_4439_18641)">
<path d="M21.6795 9.64842C21.71 10.5768 21.392 11.4809 20.7933 12.168C20.3775 12.6502 19.8682 12.9777 19.2799 13.1806C18.7695 13.3561 18.2309 13.4245 17.6951 13.3821C17.0073 13.3307 16.3657 13.1245 15.792 12.7153C15.3246 12.3827 14.9448 11.9326 14.6875 11.4066C14.5401 11.1144 14.4343 10.8014 14.3735 10.4773C14.2759 9.95487 14.2715 9.41816 14.3605 8.89411C14.4882 8.11912 14.8619 7.41154 15.4214 6.88523C15.8826 6.44149 16.4289 6.16263 17.0387 6.01325C17.5135 5.89694 18.0042 5.86872 18.4884 5.92987C19.1025 6.00564 19.6726 6.20971 20.1873 6.5718C20.5176 6.80495 20.8048 7.09852 21.0352 7.43836C21.2615 7.76439 21.433 8.12833 21.5422 8.51454C21.6198 8.79504 21.6657 9.08405 21.679 9.37568C21.6832 9.46659 21.6795 9.55751 21.6795 9.64842ZM19.595 9.65009C19.594 9.32478 19.5479 9.0125 19.4142 8.71905C19.2966 8.44733 19.1022 8.21972 18.857 8.06684C18.387 7.78107 17.893 7.74643 17.3841 7.93695C17.1133 8.03755 16.8792 8.22347 16.7139 8.46903C16.544 8.72151 16.4394 9.01552 16.4102 9.32259C16.3641 9.75289 16.3947 10.1734 16.5735 10.5723C16.7094 10.8866 16.9465 11.1412 17.2436 11.2917C17.6188 11.4863 18.0503 11.5268 18.4528 11.4053C18.9125 11.2749 19.2421 10.9794 19.4359 10.5215C19.553 10.2422 19.5935 9.9483 19.595 9.65009Z" fill="#E42646"/>
<path d="M13.1964 0.59375H10.9844V13.3829H13.1964V0.59375Z" fill="#E42646"/>
<path d="M22.0864 5.08154L23.123 3.99362L22.0864 2.90625H8.89844V5.08154H22.0864Z" fill="#E42646"/>
<path d="M7.1095 0.59375H3.7469C3.7469 0.59375 0.820698 13.2509 0.789062 13.3916C0.789062 13.3851 3.24309 13.3986 3.2374 13.3916C3.38823 12.6447 3.53905 11.9027 3.69038 11.1584H6.46781C6.6062 11.9037 6.74423 12.6483 6.8819 13.3922H10.0475C9.068 9.12498 8.08866 4.85882 7.1095 0.59375ZM4.12835 9.04105C4.47508 7.2708 4.8897 5.51969 5.10027 3.72762C5.1169 3.72762 5.13397 3.72818 5.15107 3.72818C5.34906 5.51594 5.72842 7.26959 6.0508 9.04109L4.12835 9.04105Z" fill="#E42646"/>
<path d="M28.2584 0.59375H24.8958C24.8958 0.59375 21.9691 13.2509 21.9375 13.3916C21.9375 13.3851 24.3921 13.3985 24.3858 13.3916C24.5372 12.6447 24.688 11.9026 24.8388 11.1584H27.6163C27.7546 11.9037 27.8927 12.6483 28.0303 13.3922H31.1965C30.2164 9.12496 29.237 4.85882 28.2584 0.59375ZM25.2768 9.04105C25.6235 7.27063 26.0385 5.51969 26.2485 3.72762C26.2656 3.72762 26.2822 3.72818 26.2993 3.72818C26.4978 5.51594 26.8772 7.26959 27.1995 9.04109L25.2768 9.04105Z" fill="#E42646"/>
</g>
</g>
<path d="M29.7053 1.68511V0.883917H30.1015C30.1463 0.883917 30.189 0.894049 30.2296 0.914314C30.2708 0.933856 30.3041 0.963168 30.3294 1.00225C30.3555 1.04133 30.3685 1.08946 30.3685 1.14664C30.3685 1.20382 30.3551 1.25267 30.3283 1.2932C30.3016 1.33301 30.2668 1.3634 30.2241 1.38439C30.1822 1.40538 30.138 1.41587 30.0917 1.41587H29.8149V1.27149H30.0439C30.0722 1.27149 30.0982 1.26099 30.1221 1.24C30.146 1.21901 30.1579 1.18789 30.1579 1.14664C30.1579 1.10321 30.146 1.07282 30.1221 1.05545C30.0982 1.03808 30.0733 1.02939 30.0472 1.02939H29.9028V1.68511H29.7053ZM30.2078 1.31274L30.3967 1.68511H30.1796L30.0005 1.31274H30.2078ZM30.0168 2.16279C29.8967 2.16279 29.7842 2.14035 29.6792 2.09548C29.5743 2.05061 29.482 1.98836 29.4024 1.90875C29.3228 1.82914 29.2606 1.73686 29.2157 1.63192C29.1709 1.52697 29.1484 1.41443 29.1484 1.29428C29.1484 1.17414 29.1709 1.0616 29.2157 0.956654C29.2606 0.85171 29.3228 0.759431 29.4024 0.679819C29.482 0.600206 29.5743 0.537963 29.6792 0.49309C29.7842 0.448218 29.8967 0.425781 30.0168 0.425781C30.1369 0.425781 30.2495 0.448218 30.3544 0.49309C30.4593 0.537963 30.5516 0.600206 30.6312 0.679819C30.7108 0.759431 30.773 0.85171 30.8179 0.956654C30.8627 1.0616 30.8852 1.17414 30.8852 1.29428C30.8852 1.41443 30.8627 1.52697 30.8179 1.63192C30.773 1.73686 30.7108 1.82914 30.6312 1.90875C30.5516 1.98836 30.4593 2.05061 30.3544 2.09548C30.2495 2.14035 30.1369 2.16279 30.0168 2.16279ZM30.0168 1.94023C30.1355 1.94023 30.2437 1.91128 30.3414 1.85338C30.4391 1.79548 30.5168 1.71768 30.5747 1.61997C30.6334 1.52154 30.6627 1.41298 30.6627 1.29428C30.6627 1.17559 30.6334 1.06739 30.5747 0.969681C30.5168 0.871251 30.4391 0.793086 30.3414 0.735185C30.2437 0.677285 30.1355 0.648335 30.0168 0.648335C29.8974 0.648335 29.7889 0.677285 29.6912 0.735185C29.5935 0.793086 29.5153 0.871251 29.4567 0.969681C29.3988 1.06739 29.3699 1.17559 29.3699 1.29428C29.3699 1.41298 29.3988 1.52118 29.4567 1.61889C29.5153 1.71659 29.5935 1.79476 29.6912 1.85338C29.7889 1.91128 29.8974 1.94023 30.0168 1.94023Z" fill="#E42646"/>
</g>
<defs>
<clipPath id="clip0_4439_18641">
<rect width="30.4" height="12.8" fill="white" transform="translate(0.796875 0.601562)"/>
</clipPath>
</defs>
</svg>

<svg xmlns="http://www.w3.org/2000/svg" width="32" height="14" fill="none"><g clip-path="url(#a)"><mask id="b" width="32" height="14" x="0" y="0" maskUnits="userSpaceOnUse" style="mask-type:luminance"><path fill="#fff" d="M31.19.598H.79v12.8h30.4z"/></mask><g mask="url(#b)"><mask id="c" width="32" height="14" x="0" y="0" maskUnits="userSpaceOnUse" style="mask-type:luminance"><path fill="#fff" d="M31.198.594H.789v12.8h30.409z"/></mask><g fill="#E42646" mask="url(#c)"><path d="M21.68 9.648a3.66 3.66 0 0 1-.887 2.52 3.43 3.43 0 0 1-1.513 1.013 3.9 3.9 0 0 1-1.585.201c-.688-.051-1.33-.258-1.903-.667a3.5 3.5 0 0 1-1.104-1.308 3.5 3.5 0 0 1-.315-.93 4.5 4.5 0 0 1-.012-1.583 3.55 3.55 0 0 1 1.06-2.009 3.5 3.5 0 0 1 1.618-.872 4 4 0 0 1 1.45-.083c.613.076 1.184.28 1.698.642.33.233.618.527.848.866.227.326.398.69.507 1.077q.117.422.137.86c.004.092 0 .183 0 .273m-2.085.002a2.2 2.2 0 0 0-.18-.931 1.44 1.44 0 0 0-.558-.652c-.47-.286-.964-.32-1.473-.13-.27.1-.505.286-.67.532-.17.253-.275.547-.304.854-.046.43-.015.85.163 1.25.136.314.373.568.67.719a1.6 1.6 0 0 0 1.21.113q.692-.196.983-.883c.117-.28.157-.574.159-.872M13.196.594h-2.212v12.789h2.212z"/><path d="m22.086 5.082 1.037-1.088-1.037-1.088H8.898v2.176zM7.11.594H3.746L.789 13.392c0-.007 2.454.007 2.448 0l.453-2.234h2.778l.414 2.234h3.165zM4.127 9.04c.347-1.77.762-3.521.972-5.313h.051c.198 1.788.577 3.542.9 5.313zM28.258.594h-3.362l-2.959 12.798c0-.007 2.455.007 2.449 0l.453-2.234h2.777l.414 2.234h3.166zM25.277 9.04c.346-1.77.761-3.521.971-5.313h.051c.199 1.788.578 3.542.9 5.313z"/></g></g><path fill="#E42646" d="M29.705 1.685V.884h.397q.066 0 .128.03.06.03.1.088.039.059.039.145a.26.26 0 0 1-.04.146.26.26 0 0 1-.105.091.3.3 0 0 1-.132.032h-.277V1.27h.229q.042 0 .078-.031.036-.032.036-.093 0-.066-.036-.092a.13.13 0 0 0-.075-.026h-.144v.656zm.503-.372.189.372h-.217L30 1.313zm-.191.85a.85.85 0 0 1-.615-.254.87.87 0 0 1-.254-.615.85.85 0 0 1 .254-.614.87.87 0 0 1 .615-.254.85.85 0 0 1 .614.254.87.87 0 0 1 .254.614.85.85 0 0 1-.254.615.87.87 0 0 1-.614.254m0-.223a.6.6 0 0 0 .324-.087.66.66 0 0 0 .322-.559.653.653 0 0 0-.321-.56.6.6 0 0 0-.325-.086.63.63 0 0 0-.326.087.66.66 0 0 0-.234.235.6.6 0 0 0-.087.324q0 .178.087.325a.7.7 0 0 0 .234.234.63.63 0 0 0 .326.087"/></g><defs><clipPath id="a"><path fill="#fff" d="M.797.602h30.4v12.8H.797z"/></clipPath></defs></svg>
